X: 34
T: Cranford Lodge
R: slip jig
M: 9/8
L: 1/8
Z: 2011 John Chambers <jc:trillian.mit.edu>
B: Charles & Samuel Thompson eds "Twenty Four Country Dances", London 1774, p.17 #2
K: D
% - - - - - - - - - - - - - - - - - - - - - - - - -
   g |\
f2d  (ec)A (BG)g |  f2d  (ec)A (Bd)g |\
f2d  (ec)A (BG)B | (ef)g (Be)d (cA) :|
|: g |\
(fg)a (fd)c (BG)g | (fg)a (ef)d (eA)g |\
(fg)a (fd)c (BG)B | (ef)g (Be)d (cA) :|
% - - - - - - - - Dance description - - - - - - - -
%%begintext align
%% Cast off 2 Cu. .|. up again :|. cross
%% over 1 Cu. & turn .|: Right and
%% Left :|:
%%endtext

%%sep 1 1 500
